X:1
T:Battle with a Champion
T:Junichi Masuda Arr. for Low Brass Ensemble by Evan Jaffa
T:Battle with a Champion
T:from Pokémon: Gold and Silver Versions
C:Junichi Masuda
C:Arr. for Low Brass
C:Ensemble by Evan Jaffa
%%score [ ( 1 2 ) 3 4 ( 5 6 ) ]
L:1/8
Q:1/4=160
M:4/4
K:Fmin
V:1 bass nm="Trombone 1" snm="Tbn."
V:2 bass 
V:3 bass nm="Trombone 2" snm="Tbn."
V:4 bass nm="Trombone 3" snm="Tbn."
V:5 bass nm="Trombone 4 / Tuba" snm="B. Tbn."
V:6 bass 
V:1
!mp! .F,2 z2 .F,2 z2 | .F,2 z2 .F,2 !tenuto!=E,2 |!mf! !>!F,.F, z2 !>!F,.F, z2 | %3
 !>!F,.F, z2 !>!F,.F, !>!C2 | !>!F,.F, z2 !>!F,.F, z2 | !>!F,.F, z2 !>!F,.F, !>!D2 | %6
"^simile" F,F, z2 F,F, z2 | F,F, z2 F,F, E2 | F,F, C2 F,F, D2 | F,F, C2 F,F, =E,2 | %10
 F,F, C2 F,F, D2 | F,F, C2 F,F, G,2 | F,F, C2 F,F, D2 | F,F, C2 F,F, =E,2 | F,F, C2 F,F, D2 | %15
 F,F, =D2 F,F, E2 | !>!F8 | !>!_G4 z !~(!C3 |:"^A"!ff! !~)!F3 C- C2 F=E | _E2 =D2 _D2 C2 | D4 _G4 | %21
 .B,.B, !>!D2 .B,.B, !>!E2 | F3 C- C2 F=E | _E2 =D2 _D2 CD |"^One player" z4 !>!B4 | %25
 z4 !>!!slide!d4 |"^B" !>!F!>!F z !>!F z !>!F z !>!F | z !>!F z !>!F !>!_G2 !>!G2 | %28
 !>!F!>!F z !>!F z !>!F z !>!F | z !>!F z !>!F !>!A2 !>!A2 | !>!F4 z4 | !>!E4 z4 |"^C" z8 | z8 | %34
!p!!<(! C8!<)! | D8 |"^D"!ff! !>!A2 !>!G2 !>!_G2 !>!F2 | A=G_GF !>!=E2 !>!E2 | %38
 !>!A2 !>!=G2 !>!_G2 !>!F2 | A=G_GF !>!=E2 !>!E2 |!mp! F,8 | A,4 _G,2 G,2 |!<(! F,8!<)! | E,8 | %44
!f! .F,.F, !>!C2 .F,.F, !>!D2 | .F,.F, !>!C2 .F,.F, !>!_C2 | .F,.F, !>!=C2 .F,.F, !>!D2 | %47
 .F,.F, !>!E2 .F,.F, !>!=E2 |!ff!!<(! !>!F4 !>!_G4 | !>!A4 !>!_G4 | !>!F4 !>!_G4 | %51
 !>!A4!<)!!fff! !>!B4 |1 z8 |!<(! !~(!C8!<)! :|2 !~)!!>!.c2 z2 !>!.c2 z2 | %55
 !>!.c2 z2 !>!.c2 !>!!tenuto!=B2 || !>!c!>!c z2 !>!c!>!c z2 | !>!c!>!c z2 !>!c!>!c !>!d2 | %58
{ed} !>!c!>!c z2 z4 |] %59
V:2
 x8 | x8 | x8 | x8 | x8 | x8 | x8 | x8 | x8 | x8 | x8 | x8 | x8 | x8 | x8 | x8 | x8 | x8 |: x8 | %19
 x8 | x8 | x8 | x8 | x8 | _G8- | G8 | x8 | x8 | x8 | x8 | x8 | x8 | x8 | x8 | x8 | x8 | x8 | x8 | %38
 x8 | x8 | x8 | x8 | x8 | x8 | x8 | x8 | x8 | x8 | x8 | x8 | x8 | x8 |1 x8 | x8 :|2 x8 | x8 || x8 | %57
 x8 | x8 |] %59
V:3
!mp! .C,2 z2 .C,2 z2 | .C,2 z2 .C,2 !tenuto!D,2 |!mf! !>!C,.C, z2 !>!C,.C, z2 | %3
 !>!C,.C, z2 !>!C,.C, !>!F,2 | !>!C,.C, z2 !>!C,.C, z2 | !>!C,.C, z2 !>!C,.C, !>!F,2 | %6
"^simile" C,C, z2 C,C, z2 | C,C, z2 C,C, _G,2 | C,C, F,2 C,C, F,2 | C,C, F,2 C,C, ^C,2 | %10
 =C,C, F,2 C,C, F,2 | C,C, F,2 C,C, F,2 | C,C, F,2 C,C, F,2 | C,C, F,2 C,C, ^C,2 | %14
 =C,C, F,2 C,C, _G,2 | C,C, A,2 C,C, B,2 | !>!C4 !>!F,4 | !>!D6 z2 |:!ff! C3 A,- A,2 =D_D | %19
 A,CG,=B, _G,_B,F,=A, | ._G,.G, !>!_A,2 .G,.G, !>!B,2 | ._G,.G, !>!B,2 .G,.G, !>!D2 | %22
 C3 A,- A,2 =D_D | A,CG,=B, _G,_B,F,=A, | ._G,.G, !>!_A,2 .G,.G, !>!B,2 | %25
 ._G,.G, !>!D2 .G,.G, !>!_G2 | !>!C!>!C z !>!C z !>!C z !>!C | z !>!C z !>!C !>!D2 !>!B,2 | %28
 !>!C!>!C z !>!C z !>!C z !>!C | z !>!C z !>!C !>!=E2 !>!E2 | !>!C4 !>!F,4 | !>!A,4 C4 | %32
"^subito"!p! D8- | D8 |!<(! E8!<)! | F8 |!ff! !>!F2 !>!=E2 !>!_E2 !>!=D2 | F=E_E=D !>!_D2 !>!D2 | %38
 !>!F2 !>!=E2 !>!_E2 !>!=D2 | F=E_E=D !>!_D2 !>!D2 | z8 | z8 | z8 | z8 | %44
!f! .C,.C, .F,2 .C,.C, .F,2 | .C,.C, !>!F,2 .C,.C, !>!F,2 | .D,.D, !>!F,2 .D,.D, !>!F,2 | %47
 .=D,.D, !>!A,2 .E,.E, !>!B,2 |!ff!!<(! .F,.F, !>!C2 .F,.F, !>!_D2 | .F,.F, !>!E2 .F,.F, !>!D2 | %50
 .F,.F, !>!C2 .F,.F, !>!D2 | .F,.F, !>!E2!<)!!fff! .F,.F, !>!=E2 |1 z8 |!<(! !~(!_G,8!<)! :|2 %54
 !~)!!>!.F2 z2 !>!.F2 z2 | !>!.F2 z2 !>!.F2 !>!!tenuto!_G2 || !>!F!>!F z2 !>!F!>!F z2 | %57
 !>!F!>!F z2 !>!F!>!F !>!_G2 | !>!F!>!F z2 z4 |] %59
V:4
 .F,,2 z2 .F,,2 z2 | .F,,2 z2 .F,,2 !tenuto!_G,,2 | !>!F,,.F,, z2 !>!F,,.F,, z2 | %3
 !>!F,,.F,, z2 !>!F,,.F,, !>!D,2 | !>!F,,.F,, z2 !>!F,,.F,, z2 | !>!F,,.F,, z2 !>!F,,.F,, !>!D,2 | %6
"^simile" F,,F,, z2 F,,F,, z2 | F,,F,, z2 F,,F,, D,2 | F,,F,, C,2 F,,F,, D,2 | %9
 F,,F,, C,2 F,,F,, =E,,2 | F,,F,, C,2 F,,F,, D,2 | F,,F,, C,2 F,,F,, =B,,2 | %12
 F,,F,, C,2 F,,F,, D,2 | F,,F,, C,2 F,,F,, =E,,2 | F,,F,, C,2 F,,F,, D,2 | F,,F,, D,2 F,,F,, E,2 | %16
 !>!F,4 !>!C,4 | !>!_G,6 z2 |: C,!>!C, z C, C,!>!C, z C, | C,!>!C, z C, C,!>!C, z C, | %20
 D,!>!D, z D, D,!>!D, z D, | .D,.D, !>!_G,2 .D,.D, !>!A,2 | C,!>!C, z C, C,!>!C, z C, | %23
 C,!>!C, z C, C,!>!C, z C, | D,!>!D, z D, D,!>!D, z D, | D,!>!D, z D, D,!>!D, z D, | %26
 !>!C,!>!C, z2 z (!>!=E, _E,=D,) | z4 z (!>!=E, _E,=D,) | !>!C,!>!C, z2 z (!>!=E, _E,=D,) | %29
 z4 z (!>!=E, _E,=D,) | !>!C,4 !>!C,4 | !>!D,4 E,4 |"^subito"!p! F,8- | F,8 |!<(! G,8!<)! | A,8 | %36
!ff! !>!D, z !>!D, z !>!D,!>!D, z !>!D, | z !>!A, z !>!A, !>!A,2 !>!A,2 | %38
 !>!D, z !>!D, z !>!D,!>!D, z !>!D, | z !>!A, z !>!A, !>!A,2 !>!A,2 | z8 |!mp! (D8 |!<(! C8!<)! | %43
 B,8) |!f! C,!>!C, z C, C,!>!C, z C, | C,!>!C, z C, C,!>!C, z C, | D,!>!D, z D, D,!>!D, z D, | %47
 =D,!>!D, z D, E,!>!E, z E, |!ff!!<(! C,!>!C, z C, C,!>!C, z C, | C,!>!C, z C, C,!>!C, z C, | %50
 C,!>!C, z C, C,!>!C, z C, | C,!>!C, z C,!<)!!fff! !>!C,!>!C,!>!C,!>!C, |1 z8 |!<(! !~(!F,8!<)! :|2 %54
 !~)!!>!.C2 z2 !>!.C2 z2 | !>!.C2 z2 !>!.C2 !>!!tenuto!=B,2 || !>!C!>!C z2 !>!C!>!C z2 | %57
 !>!C!>!C z2 !>!C!>!C !>!D2 | !>!C!>!C z2 z4 |] %59
V:5
 .F,,2 z2 .F,,2 z2 | .F,,2 z2 .F,,2 !tenuto!_G,,2 | !>!F,,.F,, z2 !>!F,,.F,, z2 | %3
 !>!F,,.F,, z2 !>!F,,.F,, !>!D,2 | !>!F,,.F,, z2 !>!F,,.F,, z2 | !>!F,,.F,, z2 !>!F,,.F,, !>!D,2 | %6
"^simile" F,,F,, z2 F,,F,, z2 | F,,F,, z2 F,,F,, D,2 |!f! F,,F,, C,2 F,,F,, D,2 | %9
 F,,F,, C,2 F,,F,, =E,,2 | F,,F,, C,2 F,,F,, D,2 | F,,F,, C,2 F,,F,, =B,,2 | %12
 F,,F,, C,2 F,,F,, D,2 | F,,F,, C,2 F,,F,, =E,,2 | F,,F,, C,2 F,,F,, D,2 | F,,F,, D,2 F,,F,, z2 | %16
 z4 !>!F,,4 | !>!_G,,6 z2 |: !>!F,, z !>!F,, z !>!F,, z !>!F,, z | %19
 !>!F,, z !>!F,, z !>!F,, z !>!F,, z | !>!_G,, z !>!G,, z !>!G,, z !>!G,, z | %21
 ._G,,.G,, !>!G,,2 .G,,.G,, !>!A,,2 | !>!F,, z !>!F,, z !>!F,, z !>!F,, z | %23
 !>!F,, z !>!F,, z !>!F,, z !>!F,, z | !>!_G,, z !>!G,, z !>!G,, z !>!G,, z | %25
 !>!_G,, z !>!G,, z !>!G,, z !>!G,, z | !>![F,,,F,,]8 | z8 | !>![F,,,F,,]8 | z8 | %30
 z4 !>![F,,,F,,]4 | z4 !>![F,,,F,,]4 |"^subito"!mp! !>!F,,F,, z F,, !>!F,,F,, z F,, | %33
 !>!F,,F,, z F,, !>!F,,F,, z F,, |!<(! !>!F,,F,, z F,, !>!F,,F,, z F,, | %35
 !>!F,,F,, z F,, !>!F,,F,, z!<)! F,, |!ff! !>!_G,, z !>!G,, z !>!G,,!>!G,, z !>!G,, | %37
 z !>!_G,, z !>!G,, z !>!G,, z !>!G,, | !>!_G,, z !>!G,, z !>!G,,!>!G,, z !>!G,, | %39
 z !>!_G,, z !>!G,, z !>!G,, z !>!G,, |!mf! F,, z F,, z F,, z F,, z | F,, z F,, z F,, z F,, z | %42
 _G,, z G,, z G,, z G,, z | _G,, z G,, z G,, z G,, z |!f! !>!F,, z !>!F,, z !>!F,, z !>!F,, z | %45
 !>!F,, z !>!F,, z !>!F,, z !>!F,, z | !>!F,, z !>!F,, z !>!F,, z !>!F,, z | %47
 !>!F,, z !>!F,, z !>!F,, z !>!F,, z |!ff!!<(! !>!F,, z !>!F,, z !>!F,, z !>!F,, z | %49
 !>!F,, z !>!F,, z !>!F,, z !>!F,, z | !>!F,, z !>!F,, z !>!F,, z !>!F,, z | %51
 !>!F,, z !>!F,, z!<)!!fff! !>!F,,!>!F,,!>!F,,!>!F,, |1 z8 |!<(! !~(!B,,8!<)! :|2 %54
 !~)!!>!F,2 z2 !>!F,2 z2 | !>!F,2 z2 !>!F,2 !>!=E,2 || %56
 z2 !>![F,,F,]!>![F,,F,] z2 !>![F,,F,]!>![F,,F,] | %57
 z2 !>![F,,F,]!>![F,,F,] z2 !>![F,,F,]!>![F,,F,] | !>![F,,F,]!>![F,,F,] z2 z4 |] %59
V:6
 F,,,8 | x8 | x8 | x8 | !>!F,,,8 | x8 | x8 | x8 | !>!F,,,8 | x8 | !>!F,,,8 | x8 | !>!F,,,8 | x8 | %14
 !>!F,,,8 | x8 | x8 | x8 |: x8 | x8 | x8 | x8 | x8 | x8 | x8 | x8 | x8 | x8 | x8 | x8 | x8 | x8 | %32
 x8 | x8 | x8 | x8 | x8 | x8 | x8 | x8 | x8 | x8 | x8 | x8 | x8 | x8 | x8 | x8 | x8 | x8 | x8 | %51
 x8 |1 x8 | x8 :|2 x8 | x8 || x8 | x8 | x8 |] %59

